icons/svg/email-outline.svg

﻿<?xml version="1.0" encoding="utf-8"?>
<!DOCTYPE svg PUBLIC "-//W3C//DTD SVG 1.1//EN" "http://www.w3.org/Graphics/SVG/1.1/DTD/svg11.dtd">
<svg xmlns="http://www.w3.org/2000/svg" xmlns:xlink="http://www.w3.org/1999/xlink" version="1.1" baseProfile="full" width="24" height="24" viewBox="0 0 24.00 24.00" enable-background="new 0 0 24.00 24.00" xml:space="preserve">
	<path fill="#000000" fill-opacity="1" stroke-width="0.2" stroke-linejoin="round" d="M 20,7.99806L 11.9997,12.9981L 4,7.99843L 4,18L 20,18L 20,7.99806 Z M 11.9997,10.9981L 19.9969,6L 4.00251,6L 11.9997,10.9981 Z M 19.9994,3.99807C 21.1034,3.99807 21.9994,4.89307 21.9994,5.99807L 21.9994,17.9981C 21.9994,19.1021 21.1034,19.9981 19.9994,19.9981L 3.9994,19.9981C 2.8944,19.9981 1.9994,19.1021 1.9994,17.9981L 2.00939,5.99807C 2.00939,4.89307 2.8944,3.99807 3.9994,3.99807L 19.9994,3.99807 Z "/>
</svg>

<svg xmlns="http://www.w3.org/2000/svg" version="1.1" baseProfile="full" width="24" height="24" viewBox="0 0 24.00 24.00" xml:space="preserve"><path fill="#000" fill-opacity="1" stroke-width=".2" stroke-linejoin="round" d="M20 7.998l-8 5-8-5V18h16V7.998zm-8 3L19.997 6H4.003L12 10.998zm8-7c1.103 0 2 .895 2 2v12c0 1.104-.897 2-2 2H4c-1.106 0-2-.896-2-2l.01-12c0-1.105.884-2 1.99-2h16z"/></svg>
